X: 405
T: Blue Goose
C:Buddy Thomas
B: jims roots
M:C|
L:1/8
Q: 1/4=100
K:G
V:1 
|: "G"gJbbb bbbb | b^a=ag eg2b | {b}g3z b{b}g3b | "D"{b}gedc "G"BG- G(g|
    g)Jbbb bbbb | b^a=ag eg2b | {b}g3z b{b}g3b | [1 "D"{b}gedc "G"BG- Gg :|[2 "D"{b}gedc "G"BGGG ||
|: D | "G"G2GA BGGD | "C"C2CD EGGE | "G"G2GA BAGD | "D"DFFA d3z |
"G"G,G,G,A, B,G,A,B, | "C"CCDE Gceg | "G"dggb gedc |[1 "D"BGAF "G"G3:|  [2 "D"BDFA "G"G2G2 |]
% abcbook-tune_id 6298c245a99350a997e95474


% abcbook-boost 0
% abcbook-tablature 
% abcbook-transpose 
% abcbook-lastupdated 1654178373390
% abcbook-soundfonts 
% abcbook-repeats 1


